(Exported by FreeCAD)
(Post Processor: linuxcnc_post)
(Output Time:2019-08-04 23:59:59.686191)
(begin preamble)
G17 G54 G40 G49 G80 G90
G21
(begin operation: Fixture)
(machine: not set, mm/min)
G54
G0 Z1.000
(finish operation: Fixture)
(begin operation: Default Tool)
(machine: not set, mm/min)
(Default Tool)
M6 T1
M3 S0
(finish operation: Default Tool)
(begin operation: Profile_Edges)
(machine: not set, mm/min)
(Profile_Edges)
(Compensated Tool Path. Diameter: 3.0)

G61

G0 Z6.000
G0 X7.400 Y38.200
G0 Z4.000
G1 X7.400 Y38.200 Z-4.000 F60.000
G1 X7.400 Y22.000 Z-4.000 F300.000
G1 X-2.500 Y22.000 Z-4.000 F300.000
G1 X-2.500 Y38.200 Z-4.000 F300.000
G1 X7.400 Y38.200 Z-4.000 F300.000
G0 Z6.000
G0 X27.000 Y92.300
G0 Z4.000
G1 X27.000 Y92.300 Z-4.000 F60.000
G1 X27.000 Y86.418 Z-4.000 F300.000
G3 X27.588 Y85.227 Z-4.000 I1.500 J-0.000 F300.000
G2 X22.754 Y64.436 Z-4.000 I-6.590 J-9.426 F300.000
G2 X14.412 Y85.227 Z-4.000 I-1.753 J11.366 F300.000
G3 X15.000 Y86.418 Z-4.000 I-0.912 J1.191 F300.000
G1 X15.000 Y92.300 Z-4.000 F300.000
G1 X27.000 Y92.300 Z-4.000 F300.000
G0 Z6.000
G0 X34.774 Y115.253
G0 Z4.000
G1 X34.774 Y115.253 Z-4.000 F60.000
G2 X35.500 Y114.386 Z-4.000 I-2.274 J-2.641 F300.000
G1 X35.500 Y110.814 Z-4.000 F300.000
G2 X33.361 Y109.211 Z-4.000 I-2.975 J1.740 F300.000
G2 X29.500 Y110.814 Z-4.000 I-0.862 J3.375 F300.000
G1 X29.500 Y114.386 Z-4.000 F300.000
G2 X34.774 Y115.253 Z-4.000 I3.000 J-1.774 F300.000
G0 Z6.000
G0 X58.734 Y113.834
G0 Z4.000
G1 X58.734 Y113.834 Z-4.000 F60.000
G2 X58.138 Y110.975 Z-4.000 I-1.234 J-1.234 F300.000
G2 X55.875 Y111.962 Z-4.000 I-0.638 J1.625 F300.000
G2 X56.862 Y114.225 Z-4.000 I1.625 J0.638 F300.000
G2 X58.734 Y113.834 Z-4.000 I0.638 J-1.625 F300.000
G0 Z6.000
G0 X83.734 Y113.834
G0 Z4.000
G1 X83.734 Y113.834 Z-4.000 F60.000
G2 X83.138 Y110.975 Z-4.000 I-1.234 J-1.234 F300.000
G2 X80.875 Y111.962 Z-4.000 I-0.638 J1.625 F300.000
G2 X81.862 Y114.225 Z-4.000 I1.625 J0.638 F300.000
G2 X83.734 Y113.834 Z-4.000 I0.638 J-1.625 F300.000
G0 Z6.000
G0 X71.000 Y92.300
G0 Z4.000
G1 X71.000 Y92.300 Z-4.000 F60.000
G1 X71.000 Y86.418 Z-4.000 F300.000
G3 X71.588 Y85.227 Z-4.000 I1.500 J-0.000 F300.000
G2 X66.754 Y64.436 Z-4.000 I-6.590 J-9.426 F300.000
G2 X58.412 Y85.227 Z-4.000 I-1.753 J11.366 F300.000
G3 X59.000 Y86.418 Z-4.000 I-0.912 J1.191 F300.000
G1 X59.000 Y92.300 Z-4.000 F300.000
G1 X71.000 Y92.300 Z-4.000 F300.000
G0 Z6.000
G0 X121.000 Y94.000
G0 Z4.000
G1 X121.000 Y94.000 Z-4.000 F60.000
G1 X121.000 Y84.100 Z-4.000 F300.000
G1 X104.800 Y84.100 Z-4.000 F300.000
G1 X104.800 Y94.000 Z-4.000 F300.000
G1 X121.000 Y94.000 Z-4.000 F300.000
G0 Z6.000
G0 X121.000 Y75.000
G0 Z4.000
G1 X121.000 Y75.000 Z-4.000 F60.000
G1 X121.000 Y65.100 Z-4.000 F300.000
G1 X104.800 Y65.100 Z-4.000 F300.000
G1 X104.800 Y75.000 Z-4.000 F300.000
G1 X121.000 Y75.000 Z-4.000 F300.000
G0 Z6.000
G0 X109.500 Y46.000
G0 Z4.000
G1 X109.500 Y46.000 Z-4.000 F60.000
G1 X109.500 Y9.000 Z-4.000 F300.000
G1 X15.500 Y9.000 Z-4.000 F300.000
G1 X15.500 Y46.000 Z-4.000 F300.000
G1 X109.500 Y46.000 Z-4.000 F300.000
G0 Z6.000
G0 X124.203 Y33.203
G0 Z4.000
G1 X124.203 Y33.203 Z-4.000 F60.000
G2 X123.840 Y31.566 Z-4.000 I-0.703 J-0.703 F300.000
G2 X122.566 Y32.160 Z-4.000 I-0.340 J0.934 F300.000
G2 X123.160 Y33.434 Z-4.000 I0.934 J0.340 F300.000
G2 X124.203 Y33.203 Z-4.000 I0.340 J-0.934 F300.000
G0 Z6.000
G0 X124.203 Y23.203
G0 Z4.000
G1 X124.203 Y23.203 Z-4.000 F60.000
G2 X123.840 Y21.566 Z-4.000 I-0.703 J-0.703 F300.000
G2 X122.566 Y22.160 Z-4.000 I-0.340 J0.934 F300.000
G2 X123.160 Y23.434 Z-4.000 I0.934 J0.340 F300.000
G2 X124.203 Y23.203 Z-4.000 I0.340 J-0.934 F300.000
G0 Z6.000
G0 X121.000 Y113.000
G0 Z4.000
G1 X121.000 Y113.000 Z-4.000 F60.000
G1 X121.000 Y103.100 Z-4.000 F300.000
G1 X104.800 Y103.100 Z-4.000 F300.000
G1 X104.800 Y113.000 Z-4.000 F300.000
G1 X121.000 Y113.000 Z-4.000 F300.000
G0 Z6.000
G0 X121.000 Y132.000
G0 Z4.000
G1 X121.000 Y132.000 Z-4.000 F60.000
G1 X121.000 Y122.100 Z-4.000 F300.000
G1 X104.800 Y122.100 Z-4.000 F300.000
G1 X104.800 Y132.000 Z-4.000 F300.000
G1 X121.000 Y132.000 Z-4.000 F300.000
G0 Z6.000
G0 X121.000 Y151.000
G0 Z4.000
G1 X121.000 Y151.000 Z-4.000 F60.000
G1 X121.000 Y141.100 Z-4.000 F300.000
G1 X104.800 Y141.100 Z-4.000 F300.000
G1 X104.800 Y151.000 Z-4.000 F300.000
G1 X121.000 Y151.000 Z-4.000 F300.000
G0 Z6.000
G0 X87.800 Y147.000
G0 Z4.000
G1 X87.800 Y147.000 Z-4.000 F60.000
G1 X87.800 Y137.100 Z-4.000 F300.000
G1 X71.600 Y137.100 Z-4.000 F300.000
G1 X71.600 Y147.000 Z-4.000 F300.000
G1 X87.800 Y147.000 Z-4.000 F300.000
G0 Z6.000
G0 X87.800 Y166.000
G0 Z4.000
G1 X87.800 Y166.000 Z-4.000 F60.000
G1 X87.800 Y156.100 Z-4.000 F300.000
G1 X71.600 Y156.100 Z-4.000 F300.000
G1 X71.600 Y166.000 Z-4.000 F300.000
G1 X87.800 Y166.000 Z-4.000 F300.000
G0 Z6.000
G0 X39.305 Y156.305
G0 Z4.000
G1 X39.305 Y156.305 Z-4.000 F60.000
G2 X34.084 Y140.008 Z-4.000 I-6.805 J-6.805 F300.000
G2 X30.916 Y158.992 Z-4.000 I-1.584 J9.492 F300.000
G2 X39.305 Y156.305 Z-4.000 I1.584 J-9.492 F300.000
G0 Z6.000
G0 X9.774 Y115.253
G0 Z4.000
G1 X9.774 Y115.253 Z-4.000 F60.000
G2 X10.500 Y114.386 Z-4.000 I-2.274 J-2.641 F300.000
G1 X10.500 Y110.814 Z-4.000 F300.000
G2 X8.361 Y109.211 Z-4.000 I-2.975 J1.740 F300.000
G2 X4.500 Y110.814 Z-4.000 I-0.862 J3.375 F300.000
G1 X4.500 Y114.386 Z-4.000 F300.000
G2 X9.774 Y115.253 Z-4.000 I3.000 J-1.774 F300.000
G0 Z6.000
(finish operation: Profile_Edges)
(begin postamble)
M05
G17 G54 G90 G80 G40
M2
