(Exported by FreeCAD)
(Post Processor: linuxcnc_post)
(Output Time:2019-08-04 20:27:52.404121)
(begin preamble)
G17 G54 G40 G49 G80 G90
G21
(begin operation: Fixture)
(machine: not set, mm/min)
G54
G0 Z1.000
(finish operation: Fixture)
(begin operation: Default Tool)
(machine: not set, mm/min)
(Default Tool)
M6 T1
M3 S0
(finish operation: Default Tool)
(begin operation: Drilling)
(machine: not set, mm/min)
(Drilling)
(Begin Drilling)
G0 Z6.000
G90
G98
G81 X16.000 Y0.000 Z-4.000 F60.000 R10.000
G80
G81 X16.000 Y55.000 Z-4.000 F60.000 R10.000
G80
G81 X5.500 Y80.600 Z-4.000 F60.000 R10.000
G80
G81 X38.000 Y78.050 Z-4.000 F60.000 R10.000
G80
G81 X48.000 Y78.050 Z-4.000 F60.000 R10.000
G80
G81 X80.500 Y80.600 Z-4.000 F60.000 R10.000
G80
G81 X109.000 Y55.000 Z-4.000 F60.000 R10.000
G80
G81 X123.500 Y32.500 Z-4.000 F60.000 R10.000
G80
G81 X123.500 Y22.500 Z-4.000 F60.000 R10.000
G80
G81 X109.000 Y0.000 Z-4.000 F60.000 R10.000
G80
G0 Z6.000
(finish operation: Drilling)
(begin postamble)
M05
G17 G54 G90 G80 G40
M2
